images_sukapura_svg/cmd/lc_browseview.svg

<svg viewBox="0 0 24 24" xmlns="http://www.w3.org/2000/svg" xmlns:xlink="http://www.w3.org/1999/xlink"><linearGradient id="a" gradientTransform="translate(-25.830508 -3.59322)" gradientUnits="userSpaceOnUse" x1="14" x2="13.79661" y1="22" y2="2.135593"><stop offset="0" stop-color="#0040dd"/><stop offset="1" stop-color="#0a84ff"/></linearGradient><linearGradient id="b" gradientUnits="userSpaceOnUse" x1="17" x2="17.5" xlink:href="#a" y1="22" y2="13"/><linearGradient id="c" gradientUnits="userSpaceOnUse" x1="17" x2="17.5" xlink:href="#a" y1="23" y2="12"/><path d="m3 4c-.554 0-1 .446-1 1v7.820312 6.179688c0 .554.446 1 1 1h18c.554 0 1-.446 1-1v-6.179688-7.820312c0-.554-.446-1-1-1z" fill="#98989d"/><g fill="#fff"><path d="m3 5v7.03125 6.96875h18v-6.96875-7.03125z"/><path d="m17.5 11a6.5 6.5 0 0 0 -6.5 6.5 6.5 6.5 0 0 0 .019531.388672 6.5 6.5 0 0 0 .035157.394531 6.5 6.5 0 0 0 .027343.177735 6.5 6.5 0 0 0 .09375.5 6.5 6.5 0 0 0 .330078 1.039062h9.494141c.554 0 1-.446 1-1v-6.179688a6.5 6.5 0 0 0 -1.304688-.970703 6.5 6.5 0 0 0 -.664062-.332031 6.5 6.5 0 0 1 -.001953 0 6.5 6.5 0 0 0 -1.880859-.484375 6.5 6.5 0 0 0 -.648438-.033203z" fill-opacity=".784314"/><circle cx="17.5" cy="17.5" r="4.5"/></g><path d="m17.5 12a5.5 5.5 0 0 0 -5.5 5.5 5.5 5.5 0 0 0 5.5 5.5 5.5 5.5 0 0 0 5.5-5.5 5.5 5.5 0 0 0 -5.5-5.5zm0 1a4.5 4.5 0 0 1 4.5 4.5 4.5 4.5 0 0 1 -4.5 4.5 4.5 4.5 0 0 1 -4.5-4.5 4.5 4.5 0 0 1 4.5-4.5z" fill="url(#c)"/><path d="m12.568545 17h9.844933v1h-9.844933z" fill="url(#c)"/><g fill="none" stroke="url(#b)"><path d="m17 22c-1.387224-2.634108-2.531504-5.332342 0-9" stroke-linecap="square"/><path d="m18.004067 22c1.387224-2.634108 2.531504-5.332342 0-9" stroke-linecap="square"/><g stroke-opacity=".992157"><path d="m13.478658 14.449432c2.336607 1.442656 5.670005 1.336285 8.006729 0"/><path d="m13.478658 20.56596c2.336607-1.442656 5.670005-1.336285 8.006729 0"/></g></g></svg>

<?xml version="1.0" encoding="UTF-8" standalone="no"?>
<svg
   xmlns:dc="http://purl.org/dc/elements/1.1/"
   xmlns:cc="http://creativecommons.org/ns#"
   xmlns:rdf="http://www.w3.org/1999/02/22-rdf-syntax-ns#"
   xmlns:svg="http://www.w3.org/2000/svg"
   xmlns="http://www.w3.org/2000/svg"
   xmlns:xlink="http://www.w3.org/1999/xlink"
   xmlns:sodipodi="http://sodipodi.sourceforge.net/DTD/sodipodi-0.dtd"
   xmlns:inkscape="http://www.inkscape.org/namespaces/inkscape"
   viewBox="0 0 24 24"
   version="1.1"
   id="svg22"
   sodipodi:docname="lc_browseview.svg"
   inkscape:version="0.92.3 (unknown)"
   inkscape:export-filename="/home/rizmut/Dokumen/Rizmut/Github/libreoffice-style-sukapura/images_sukapura/cmd/lc_browseview.png"
   inkscape:export-xdpi="96"
   inkscape:export-ydpi="96">
  <metadata
     id="metadata28">
    <rdf:RDF>
      <cc:Work
         rdf:about="">
        <dc:format>image/svg+xml</dc:format>
        <dc:type
           rdf:resource="http://purl.org/dc/dcmitype/StillImage" />
        <dc:title></dc:title>
      </cc:Work>
    </rdf:RDF>
  </metadata>
  <defs
     id="defs26">
    <linearGradient
       gradientTransform="translate(-14.595038,-11.35191)"
       id="a-3"
       gradientUnits="userSpaceOnUse"
       x1="8"
       x2="8.8085938"
       y1="14"
       y2="2.1347661">
      <stop
         offset="0"
         stop-color="#e5eefc"
         id="stop2-6" />
      <stop
         offset="1"
         stop-color="#fcfdff"
         id="stop4-7" />
    </linearGradient>
    <linearGradient
       gradientTransform="translate(-25.830508,-3.5932203)"
       id="a"
       gradientUnits="userSpaceOnUse"
       x1="14"
       x2="13.79661"
       y1="22"
       y2="2.1355929">
      <stop
         offset="0"
         stop-color="#0040dd"
         id="stop2" />
      <stop
         offset="1"
         stop-color="#0a84ff"
         id="stop4" />
    </linearGradient>
    <linearGradient
       inkscape:collect="always"
       xlink:href="#a"
       id="linearGradient1644"
       x1="17"
       y1="22"
       x2="17.5"
       y2="13"
       gradientUnits="userSpaceOnUse" />
    <linearGradient
       inkscape:collect="always"
       xlink:href="#a"
       id="linearGradient1652"
       x1="17"
       y1="23"
       x2="17.5"
       y2="12"
       gradientUnits="userSpaceOnUse" />
    <linearGradient
       inkscape:collect="always"
       xlink:href="#a"
       id="linearGradient1654"
       x1="17"
       y1="23"
       x2="17.5"
       y2="12"
       gradientUnits="userSpaceOnUse" />
    <linearGradient
       inkscape:collect="always"
       xlink:href="#a-3"
       id="linearGradient2907"
       x1="17"
       y1="22"
       x2="17.5"
       y2="13"
       gradientUnits="userSpaceOnUse" />
  </defs>
  <sodipodi:namedview
     pagecolor="#ffffff"
     bordercolor="#666666"
     borderopacity="1"
     objecttolerance="10"
     gridtolerance="10"
     guidetolerance="10"
     inkscape:pageopacity="0"
     inkscape:pageshadow="2"
     inkscape:window-width="1366"
     inkscape:window-height="706"
     id="namedview24"
     showgrid="true"
     inkscape:zoom="19.666667"
     inkscape:cx="23.284074"
     inkscape:cy="9.6626931"
     inkscape:window-x="0"
     inkscape:window-y="0"
     inkscape:window-maximized="1"
     inkscape:current-layer="svg22">
    <inkscape:grid
       type="xygrid"
       id="grid835" />
  </sodipodi:namedview>
  <path
     style="fill:#98989d;fill-opacity:1"
     d="M 3,4 C 2.446,4 2,4.446 2,5 V 12.820312 19 c 0,0.554 0.446,1 1,1 h 18 c 0.554,0 1,-0.446 1,-1 V 12.820312 5 C 22,4.446 21.554,4 21,4 Z"
     id="path4"
     inkscape:connector-curvature="0"
     sodipodi:nodetypes="sscsccscsss" />
  <path
     d="M 3,5 V 12.03125 19 H 21 V 12.03125 5 Z"
     id="path6"
     style="fill:#ffffff"
     inkscape:connector-curvature="0"
     sodipodi:nodetypes="ccccccc" />
  <path
     style="fill:#ffffff;fill-opacity:0.78431374"
     d="M 17.5 11 A 6.5 6.5 0 0 0 11 17.5 A 6.5 6.5 0 0 0 11.019531 17.888672 A 6.5 6.5 0 0 0 11.054688 18.283203 A 6.5 6.5 0 0 0 11.082031 18.460938 A 6.5 6.5 0 0 0 11.175781 18.960938 A 6.5 6.5 0 0 0 11.505859 20 L 21 20 C 21.554 20 22 19.554 22 19 L 22 12.820312 A 6.5 6.5 0 0 0 20.695312 11.849609 A 6.5 6.5 0 0 0 20.03125 11.517578 A 6.5 6.5 0 0 1 20.029297 11.517578 A 6.5 6.5 0 0 0 18.148438 11.033203 A 6.5 6.5 0 0 0 17.5 11 z "
     id="path2311" />
  <circle
     cx="17.5"
     cy="17.5"
     fill="#fff"
     r="4.5"
     id="circle2" />
  <path
     d="m17.5 12a5.5 5.5 0 0 0 -5.5 5.5 5.5 5.5 0 0 0 5.5 5.5 5.5 5.5 0 0 0 5.5-5.5 5.5 5.5 0 0 0 -5.5-5.5zm0 1a4.5 4.5 0 0 1 4.5 4.5 4.5 4.5 0 0 1 -4.5 4.5 4.5 4.5 0 0 1 -4.5-4.5 4.5 4.5 0 0 1 4.5-4.5z"
     id="path8"
     style="stroke:none;fill-opacity:1;fill:url(#linearGradient1652)"
     fill="#4d82b8" />
  <path
     style="opacity:1;fill:url(#linearGradient2907);fill-opacity:1;stroke:none;stroke-width:1;stroke-linecap:round;stroke-linejoin:round;stroke-miterlimit:4;stroke-dasharray:none;stroke-opacity:0"
     id="path2899"
     r="4.5"
     cy="17.5"
     cx="17.5" />
  <path
     d="m12.568545 17h9.844933v1h-9.844933z"
     fill="#4d82b8"
     id="path10"
     style="stroke:none;fill-opacity:1;fill:url(#linearGradient1654)" />
  <g
     id="g20"
     stroke="#4d82b8"
     fill="none"
     style="stroke:url(#linearGradient1644)">
    <path
       d="m17 22c-1.387224-2.634108-2.531504-5.332342 0-9"
       id="path12"
       stroke-linecap="square"
       style="stroke:url(#linearGradient1644)" />
    <path
       d="m18.004067 22c1.387224-2.634108 2.531504-5.332342 0-9"
       id="path14"
       stroke-linecap="square"
       style="stroke:url(#linearGradient1644)" />
    <path
       d="m13.478658 14.449432c2.336607 1.442656 5.670005 1.336285 8.006729 0"
       id="path16"
       stroke-opacity=".992157"
       style="stroke:url(#linearGradient1644)" />
    <path
       d="m13.478658 20.56596c2.336607-1.442656 5.670005-1.336285 8.006729 0"
       id="path18"
       stroke-opacity=".992157"
       style="stroke:url(#linearGradient1644)" />
  </g>
</svg>
